colorLut/exampleLuts/contrast_8.cube
LUT_3D_SIZE 8
0 0 0
0 0 0
0.09411764705882353 0 0
0.3607843137254902 0 0
0.6352941176470588 0 0
0.9019607843137255 0 0
1 0 0
1 0 0
0 0 0
0 0 0
0.09411764705882353 0 0
0.3607843137254902 0 0
0.6352941176470588 0 0
0.9019607843137255 0 0
1 0 0
1 0 0
0 0.09411764705882353 0
0 0.09411764705882353 0
0.09411764705882353 0.09411764705882353 0
0.3607843137254902 0.09411764705882353 0
0.6352941176470588 0.09411764705882353 0
0.9019607843137255 0.09411764705882353 0
1 0.09411764705882353 0
1 0.09411764705882353 0
0 0.3607843137254902 0
0 0.3607843137254902 0
0.09411764705882353 0.3607843137254902 0
0.3607843137254902 0.3607843137254902 0
0.6352941176470588 0.3607843137254902 0
0.9019607843137255 0.3607843137254902 0
1 0.3607843137254902 0
1 0.3607843137254902 0
0 0.6352941176470588 0
0 0.6352941176470588 0
0.09411764705882353 0.6352941176470588 0
0.3607843137254902 0.6352941176470588 0
0.6352941176470588 0.6352941176470588 0
0.9019607843137255 0.6352941176470588 0
1 0.6352941176470588 0
1 0.6352941176470588 0
0 0.9019607843137255 0
0 0.9019607843137255 0
0.09411764705882353 0.9019607843137255 0
0.3607843137254902 0.9019607843137255 0
0.6352941176470588 0.9019607843137255 0
0.9019607843137255 0.9019607843137255 0
1 0.9019607843137255 0
1 0.9019607843137255 0
0 1 0
0 1 0
0.09411764705882353 1 0
0.3607843137254902 1 0
0.6352941176470588 1 0
0.9019607843137255 1 0
1 1 0
1 1 0
0 1 0
0 1 0
0.09411764705882353 1 0
0.3607843137254902 1 0
0.6352941176470588 1 0
0.9019607843137255 1 0
1 1 0
1 1 0
0 0 0
0 0 0
0.09411764705882353 0 0
0.3607843137254902 0 0
0.6352941176470588 0 0
0.9019607843137255 0 0
1 0 0
1 0 0
0 0 0
0 0 0
0.09411764705882353 0 0
0.3607843137254902 0 0
0.6352941176470588 0 0
0.9019607843137255 0 0
1 0 0
1 0 0
0 0.09411764705882353 0
0 0.09411764705882353 0
0.09411764705882353 0.09411764705882353 0
0.3607843137254902 0.09411764705882353 0
0.6352941176470588 0.09411764705882353 0
0.9019607843137255 0.09411764705882353 0
1 0.09411764705882353 0
1 0.09411764705882353 0
0 0.3607843137254902 0
0 0.3607843137254902 0
0.09411764705882353 0.3607843137254902 0
0.3607843137254902 0.3607843137254902 0
0.6352941176470588 0.3607843137254902 0
0.9019607843137255 0.3607843137254902 0
1 0.3607843137254902 0
1 0.3607843137254902 0
0 0.6352941176470588 0
0 0.6352941176470588 0
0.09411764705882353 0.6352941176470588 0
0.3607843137254902 0.6352941176470588 0
0.6352941176470588 0.6352941176470588 0
0.9019607843137255 0.6352941176470588 0
1 0.6352941176470588 0
1 0.6352941176470588 0
0 0.9019607843137255 0
0 0.9019607843137255 0
0.09411764705882353 0.9019607843137255 0
0.3607843137254902 0.9019607843137255 0
0.6352941176470588 0.9019607843137255 0
0.9019607843137255 0.9019607843137255 0
1 0.9019607843137255 0
1 0.9019607843137255 0
0 1 0
0 1 0
0.09411764705882353 1 0
0.3607843137254902 1 0
0.6352941176470588 1 0
0.9019607843137255 1 0
1 1 0
1 1 0
0 1 0
0 1 0
0.09411764705882353 1 0
0.3607843137254902 1 0
0.6352941176470588 1 0
0.9019607843137255 1 0
1 1 0
1 1 0
0 0 0.09411764705882353
0 0 0.09411764705882353
0.09411764705882353 0 0.09411764705882353
0.3607843137254902 0 0.09411764705882353
0.6352941176470588 0 0.09411764705882353
0.9019607843137255 0 0.09411764705882353
1 0 0.09411764705882353
1 0 0.09411764705882353
0 0 0.09411764705882353
0 0 0.09411764705882353
0.09411764705882353 0 0.09411764705882353
0.3607843137254902 0 0.09411764705882353
0.6352941176470588 0 0.09411764705882353
0.9019607843137255 0 0.09411764705882353
1 0 0.09411764705882353
1 0 0.09411764705882353
0 0.09411764705882353 0.09411764705882353
0 0.09411764705882353 0.09411764705882353
0.09411764705882353 0.09411764705882353 0.09411764705882353
0.3607843137254902 0.09411764705882353 0.09411764705882353
0.6352941176470588 0.09411764705882353 0.09411764705882353
0.9019607843137255 0.09411764705882353 0.09411764705882353
1 0.09411764705882353 0.09411764705882353
1 0.09411764705882353 0.09411764705882353
0 0.3607843137254902 0.09411764705882353
0 0.3607843137254902 0.09411764705882353
0.09411764705882353 0.3607843137254902 0.09411764705882353
0.3607843137254902 0.3607843137254902 0.09411764705882353
0.6352941176470588 0.3607843137254902 0.09411764705882353
0.9019607843137255 0.3607843137254902 0.09411764705882353
1 0.3607843137254902 0.09411764705882353
1 0.3607843137254902 0.09411764705882353
0 0.6352941176470588 0.09411764705882353
0 0.6352941176470588 0.09411764705882353
0.09411764705882353 0.6352941176470588 0.09411764705882353
0.3607843137254902 0.6352941176470588 0.09411764705882353
0.6352941176470588 0.6352941176470588 0.09411764705882353
0.9019607843137255 0.6352941176470588 0.09411764705882353
1 0.6352941176470588 0.09411764705882353
1 0.6352941176470588 0.09411764705882353
0 0.9019607843137255 0.09411764705882353
0 0.9019607843137255 0.09411764705882353
0.09411764705882353 0.9019607843137255 0.09411764705882353
0.3607843137254902 0.9019607843137255 0.09411764705882353
0.6352941176470588 0.9019607843137255 0.09411764705882353
0.9019607843137255 0.9019607843137255 0.09411764705882353
1 0.9019607843137255 0.09411764705882353
1 0.9019607843137255 0.09411764705882353
0 1 0.09411764705882353
0 1 0.09411764705882353
0.09411764705882353 1 0.09411764705882353
0.3607843137254902 1 0.09411764705882353
0.6352941176470588 1 0.09411764705882353
0.9019607843137255 1 0.09411764705882353
1 1 0.09411764705882353
1 1 0.09411764705882353
0 1 0.09411764705882353
0 1 0.09411764705882353
0.09411764705882353 1 0.09411764705882353
0.3607843137254902 1 0.09411764705882353
0.6352941176470588 1 0.09411764705882353
0.9019607843137255 1 0.09411764705882353
1 1 0.09411764705882353
1 1 0.09411764705882353
0 0 0.3607843137254902
0 0 0.3607843137254902
0.09411764705882353 0 0.3607843137254902
0.3607843137254902 0 0.3607843137254902
0.6352941176470588 0 0.3607843137254902
0.9019607843137255 0 0.3607843137254902
1 0 0.3607843137254902
1 0 0.3607843137254902
0 0 0.3607843137254902
0 0 0.3607843137254902
0.09411764705882353 0 0.3607843137254902
0.3607843137254902 0 0.3607843137254902
0.6352941176470588 0 0.3607843137254902
0.9019607843137255 0 0.3607843137254902
1 0 0.3607843137254902
1 0 0.3607843137254902
0 0.09411764705882353 0.3607843137254902
0 0.09411764705882353 0.3607843137254902
0.09411764705882353 0.09411764705882353 0.3607843137254902
0.3607843137254902 0.09411764705882353 0.3607843137254902
0.6352941176470588 0.09411764705882353 0.3607843137254902
0.9019607843137255 0.09411764705882353 0.3607843137254902
1 0.09411764705882353 0.3607843137254902
1 0.09411764705882353 0.3607843137254902
0 0.3607843137254902 0.3607843137254902
0 0.3607843137254902 0.3607843137254902
0.09411764705882353 0.3607843137254902 0.3607843137254902
0.3607843137254902 0.3607843137254902 0.3607843137254902
0.6352941176470588 0.3607843137254902 0.3607843137254902
0.9019607843137255 0.3607843137254902 0.3607843137254902
1 0.3607843137254902 0.3607843137254902
1 0.3607843137254902 0.3607843137254902
0 0.6352941176470588 0.3607843137254902
0 0.6352941176470588 0.3607843137254902
0.09411764705882353 0.6352941176470588 0.3607843137254902
0.3607843137254902 0.6352941176470588 0.3607843137254902
0.6352941176470588 0.6352941176470588 0.3607843137254902
0.9019607843137255 0.6352941176470588 0.3607843137254902
1 0.6352941176470588 0.3607843137254902
1 0.6352941176470588 0.3607843137254902
0 0.9019607843137255 0.3607843137254902
0 0.9019607843137255 0.3607843137254902
0.09411764705882353 0.9019607843137255 0.3607843137254902
0.3607843137254902 0.9019607843137255 0.3607843137254902
0.6352941176470588 0.9019607843137255 0.3607843137254902
0.9019607843137255 0.9019607843137255 0.3607843137254902
1 0.9019607843137255 0.3607843137254902
1 0.9019607843137255 0.3607843137254902
0 1 0.3607843137254902
0 1 0.3607843137254902
0.09411764705882353 1 0.3607843137254902
0.3607843137254902 1 0.3607843137254902
0.6352941176470588 1 0.3607843137254902
0.9019607843137255 1 0.3607843137254902
1 1 0.3607843137254902
1 1 0.3607843137254902
0 1 0.3607843137254902
0 1 0.3607843137254902
0.09411764705882353 1 0.3607843137254902
0.3607843137254902 1 0.3607843137254902
0.6352941176470588 1 0.3607843137254902
0.9019607843137255 1 0.3607843137254902
1 1 0.3607843137254902
1 1 0.3607843137254902
0 0 0.6352941176470588
0 0 0.6352941176470588
0.09411764705882353 0 0.6352941176470588
0.3607843137254902 0 0.6352941176470588
0.6352941176470588 0 0.6352941176470588
0.9019607843137255 0 0.6352941176470588
1 0 0.6352941176470588
1 0 0.6352941176470588
0 0 0.6352941176470588
0 0 0.6352941176470588
0.09411764705882353 0 0.6352941176470588
0.3607843137254902 0 0.6352941176470588
0.6352941176470588 0 0.6352941176470588
0.9019607843137255 0 0.6352941176470588
1 0 0.6352941176470588
1 0 0.6352941176470588
0 0.09411764705882353 0.6352941176470588
0 0.09411764705882353 0.6352941176470588
0.09411764705882353 0.09411764705882353 0.6352941176470588
0.3607843137254902 0.09411764705882353 0.6352941176470588
0.6352941176470588 0.09411764705882353 0.6352941176470588
0.9019607843137255 0.09411764705882353 0.6352941176470588
1 0.09411764705882353 0.6352941176470588
1 0.09411764705882353 0.6352941176470588
0 0.3607843137254902 0.6352941176470588
0 0.3607843137254902 0.6352941176470588
0.09411764705882353 0.3607843137254902 0.6352941176470588
0.3607843137254902 0.3607843137254902 0.6352941176470588
0.6352941176470588 0.3607843137254902 0.6352941176470588
0.9019607843137255 0.3607843137254902 0.6352941176470588
1 0.3607843137254902 0.6352941176470588
1 0.3607843137254902 0.6352941176470588
0 0.6352941176470588 0.6352941176470588
0 0.6352941176470588 0.6352941176470588
0.09411764705882353 0.6352941176470588 0.6352941176470588
0.3607843137254902 0.6352941176470588 0.6352941176470588
0.6352941176470588 0.6352941176470588 0.6352941176470588
0.9019607843137255 0.6352941176470588 0.6352941176470588
1 0.6352941176470588 0.6352941176470588
1 0.6352941176470588 0.6352941176470588
0 0.9019607843137255 0.6352941176470588
0 0.9019607843137255 0.6352941176470588
0.09411764705882353 0.9019607843137255 0.6352941176470588
0.3607843137254902 0.9019607843137255 0.6352941176470588
0.6352941176470588 0.9019607843137255 0.6352941176470588
0.9019607843137255 0.9019607843137255 0.6352941176470588
1 0.9019607843137255 0.6352941176470588
1 0.9019607843137255 0.6352941176470588
0 1 0.6352941176470588
0 1 0.6352941176470588
0.09411764705882353 1 0.6352941176470588
0.3607843137254902 1 0.6352941176470588
0.6352941176470588 1 0.6352941176470588
0.9019607843137255 1 0.6352941176470588
1 1 0.6352941176470588
1 1 0.6352941176470588
0 1 0.6352941176470588
0 1 0.6352941176470588
0.09411764705882353 1 0.6352941176470588
0.3607843137254902 1 0.6352941176470588
0.6352941176470588 1 0.6352941176470588
0.9019607843137255 1 0.6352941176470588
1 1 0.6352941176470588
1 1 0.6352941176470588
0 0 0.9019607843137255
0 0 0.9019607843137255
0.09411764705882353 0 0.9019607843137255
0.3607843137254902 0 0.9019607843137255
0.6352941176470588 0 0.9019607843137255
0.9019607843137255 0 0.9019607843137255
1 0 0.9019607843137255
1 0 0.9019607843137255
0 0 0.9019607843137255
0 0 0.9019607843137255
0.09411764705882353 0 0.9019607843137255
0.3607843137254902 0 0.9019607843137255
0.6352941176470588 0 0.9019607843137255
0.9019607843137255 0 0.9019607843137255
1 0 0.9019607843137255
1 0 0.9019607843137255
0 0.09411764705882353 0.9019607843137255
0 0.09411764705882353 0.9019607843137255
0.09411764705882353 0.09411764705882353 0.9019607843137255
0.3607843137254902 0.09411764705882353 0.9019607843137255
0.6352941176470588 0.09411764705882353 0.9019607843137255
0.9019607843137255 0.09411764705882353 0.9019607843137255
1 0.09411764705882353 0.9019607843137255
1 0.09411764705882353 0.9019607843137255
0 0.3607843137254902 0.9019607843137255
0 0.3607843137254902 0.9019607843137255
0.09411764705882353 0.3607843137254902 0.9019607843137255
0.3607843137254902 0.3607843137254902 0.9019607843137255
0.6352941176470588 0.3607843137254902 0.9019607843137255
0.9019607843137255 0.3607843137254902 0.9019607843137255
1 0.3607843137254902 0.9019607843137255
1 0.3607843137254902 0.9019607843137255
0 0.6352941176470588 0.9019607843137255
0 0.6352941176470588 0.9019607843137255
0.09411764705882353 0.6352941176470588 0.9019607843137255
0.3607843137254902 0.6352941176470588 0.9019607843137255
0.6352941176470588 0.6352941176470588 0.9019607843137255
0.9019607843137255 0.6352941176470588 0.9019607843137255
1 0.6352941176470588 0.9019607843137255
1 0.6352941176470588 0.9019607843137255
0 0.9019607843137255 0.9019607843137255
0 0.9019607843137255 0.9019607843137255
0.09411764705882353 0.9019607843137255 0.9019607843137255
0.3607843137254902 0.9019607843137255 0.9019607843137255
0.6352941176470588 0.9019607843137255 0.9019607843137255
0.9019607843137255 0.9019607843137255 0.9019607843137255
1 0.9019607843137255 0.9019607843137255
1 0.9019607843137255 0.9019607843137255
0 1 0.9019607843137255
0 1 0.9019607843137255
0.09411764705882353 1 0.9019607843137255
0.3607843137254902 1 0.9019607843137255
0.6352941176470588 1 0.9019607843137255
0.9019607843137255 1 0.9019607843137255
1 1 0.9019607843137255
1 1 0.9019607843137255
0 1 0.9019607843137255
0 1 0.9019607843137255
0.09411764705882353 1 0.9019607843137255
0.3607843137254902 1 0.9019607843137255
0.6352941176470588 1 0.9019607843137255
0.9019607843137255 1 0.9019607843137255
1 1 0.9019607843137255
1 1 0.9019607843137255
0 0 1
0 0 1
0.09411764705882353 0 1
0.3607843137254902 0 1
0.6352941176470588 0 1
0.9019607843137255 0 1
1 0 1
1 0 1
0 0 1
0 0 1
0.09411764705882353 0 1
0.3607843137254902 0 1
0.6352941176470588 0 1
0.9019607843137255 0 1
1 0 1
1 0 1
0 0.09411764705882353 1
0 0.09411764705882353 1
0.09411764705882353 0.09411764705882353 1
0.3607843137254902 0.09411764705882353 1
0.6352941176470588 0.09411764705882353 1
0.9019607843137255 0.09411764705882353 1
1 0.09411764705882353 1
1 0.09411764705882353 1
0 0.3607843137254902 1
0 0.3607843137254902 1
0.09411764705882353 0.3607843137254902 1
0.3607843137254902 0.3607843137254902 1
0.6352941176470588 0.3607843137254902 1
0.9019607843137255 0.3607843137254902 1
1 0.3607843137254902 1
1 0.3607843137254902 1
0 0.6352941176470588 1
0 0.6352941176470588 1
0.09411764705882353 0.6352941176470588 1
0.3607843137254902 0.6352941176470588 1
0.6352941176470588 0.6352941176470588 1
0.9019607843137255 0.6352941176470588 1
1 0.6352941176470588 1
1 0.6352941176470588 1
0 0.9019607843137255 1
0 0.9019607843137255 1
0.09411764705882353 0.9019607843137255 1
0.3607843137254902 0.9019607843137255 1
0.6352941176470588 0.9019607843137255 1
0.9019607843137255 0.9019607843137255 1
1 0.9019607843137255 1
1 0.9019607843137255 1
0 1 1
0 1 1
0.09411764705882353 1 1
0.3607843137254902 1 1
0.6352941176470588 1 1
0.9019607843137255 1 1
1 1 1
1 1 1
0 1 1
0 1 1
0.09411764705882353 1 1
0.3607843137254902 1 1
0.6352941176470588 1 1
0.9019607843137255 1 1
1 1 1
1 1 1
0 0 1
0 0 1
0.09411764705882353 0 1
0.3607843137254902 0 1
0.6352941176470588 0 1
0.9019607843137255 0 1
1 0 1
1 0 1
0 0 1
0 0 1
0.09411764705882353 0 1
0.3607843137254902 0 1
0.6352941176470588 0 1
0.9019607843137255 0 1
1 0 1
1 0 1
0 0.09411764705882353 1
0 0.09411764705882353 1
0.09411764705882353 0.09411764705882353 1
0.3607843137254902 0.09411764705882353 1
0.6352941176470588 0.09411764705882353 1
0.9019607843137255 0.09411764705882353 1
1 0.09411764705882353 1
1 0.09411764705882353 1
0 0.3607843137254902 1
0 0.3607843137254902 1
0.09411764705882353 0.3607843137254902 1
0.3607843137254902 0.3607843137254902 1
0.6352941176470588 0.3607843137254902 1
0.9019607843137255 0.3607843137254902 1
1 0.3607843137254902 1
1 0.3607843137254902 1
0 0.6352941176470588 1
0 0.6352941176470588 1
0.09411764705882353 0.6352941176470588 1
0.3607843137254902 0.6352941176470588 1
0.6352941176470588 0.6352941176470588 1
0.9019607843137255 0.6352941176470588 1
1 0.6352941176470588 1
1 0.6352941176470588 1
0 0.9019607843137255 1
0 0.9019607843137255 1
0.09411764705882353 0.9019607843137255 1
0.3607843137254902 0.9019607843137255 1
0.6352941176470588 0.9019607843137255 1
0.9019607843137255 0.9019607843137255 1
1 0.9019607843137255 1
1 0.9019607843137255 1
0 1 1
0 1 1
0.09411764705882353 1 1
0.3607843137254902 1 1
0.6352941176470588 1 1
0.9019607843137255 1 1
1 1 1
1 1 1
0 1 1
0 1 1
0.09411764705882353 1 1
0.3607843137254902 1 1
0.6352941176470588 1 1
0.9019607843137255 1 1
1 1 1
1 1 1
