colorLut/exampleLuts/sepia_8.cube
LUT_3D_SIZE 4
DOMAIN_MIN 0.000000 0.000000 0.000000
DOMAIN_MAX 0.857143 0.857143 0.857143
0 0 0
0.13333333333333333 0.08235294117647059 0.047058823529411764
0.23921568627450981 0.16862745098039217 0.11764705882352941
0.3333333333333333 0.2549019607843137 0.19215686274509805
0.23529411764705882 0.16470588235294117 0.11372549019607843
0.32941176470588235 0.25098039215686274 0.18823529411764706
0.41568627450980394 0.33725490196078434 0.27058823529411763
0.5019607843137255 0.4235294117647059 0.35294117647058826
0.4117647058823529 0.3333333333333333 0.26666666666666666
0.4980392156862745 0.4196078431372549 0.34901960784313724
0.5764705882352941 0.5058823529411764 0.4392156862745098
0.6549019607843137 0.592156862745098 0.5294117647058824
0.5725490196078431 0.5019607843137255 0.43529411764705883
0.6509803921568628 0.5882352941176471 0.5254901960784314
0.7294117647058823 0.6745098039215687 0.6196078431372549
0.8 0.7607843137254902 0.7176470588235294
0.058823529411764705 0.03137254901960784 0.01568627450980392
0.1803921568627451 0.11764705882352941 0.07450980392156863
0.27450980392156865 0.2 0.1411764705882353
0.36470588235294116 0.28627450980392155 0.2196078431372549
0.27450980392156865 0.2 0.1411764705882353
0.36470588235294116 0.28627450980392155 0.2196078431372549
0.4470588235294118 0.3686274509803922 0.2980392156862745
0.5294117647058824 0.4549019607843137 0.38823529411764707
0.4470588235294118 0.3686274509803922 0.2980392156862745
0.5254901960784314 0.45098039215686275 0.3843137254901961
0.6078431372549019 0.5372549019607843 0.47058823529411764
0.6823529411764706 0.6235294117647059 0.5647058823529412
0.6039215686274509 0.5333333333333333 0.4666666666666667
0.6784313725490196 0.6196078431372549 0.5607843137254902
0.7529411764705882 0.7058823529411765 0.6549019607843137
0.8274509803921568 0.792156862745098 0.7529411764705882
0.10588235294117647 0.06274509803921569 0.03529411764705882
0.21568627450980393 0.14901960784313725 0.09803921568627451
0.3137254901960784 0.23529411764705882 0.17254901960784313
0.4 0.3215686274509804 0.2549019607843137
0.30980392156862746 0.23137254901960785 0.17254901960784313
0.396078431372549 0.3176470588235294 0.25098039215686274
0.4823529411764706 0.403921568627451 0.3333333333333333
0.5607843137254902 0.48627450980392156 0.4196078431372549
0.47843137254901963 0.4 0.32941176470588235
0.5607843137254902 0.48627450980392156 0.4196078431372549
0.6392156862745098 0.5725490196078431 0.5098039215686274
0.7098039215686275 0.6549019607843137 0.6
0.6352941176470588 0.5686274509803921 0.5058823529411764
0.7098039215686275 0.6549019607843137 0.6
0.7803921568627451 0.7372549019607844 0.6901960784313725
0.8549019607843137 0.8235294117647058 0.792156862745098
0.14901960784313725 0.09411764705882353 0.054901960784313725
0.25098039215686274 0.1803921568627451 0.12549019607843137
0.34509803921568627 0.26666666666666666 0.20392156862745098
0.43137254901960786 0.35294117647058826 0.28627450980392155
0.3411764705882353 0.2627450980392157 0.2
0.42745098039215684 0.34901960784313724 0.2823529411764706
0.5137254901960784 0.43529411764705883 0.36470588235294116
0.592156862745098 0.5215686274509804 0.4549019607843137
0.5098039215686274 0.43137254901960786 0.3607843137254902
0.5882352941176471 0.5176470588235295 0.45098039215686275
0.6666666666666666 0.6039215686274509 0.5450980392156862
0.7411764705882353 0.6901960784313725 0.6392156862745098
0.6627450980392157 0.6 0.5411764705882353
0.7372549019607844 0.6862745098039216 0.6352941176470588
0.8117647058823529 0.7725490196078432 0.7333333333333333
0.8823529411764706 0.8588235294117647 0.8313725490196079
